svgs/sharp-light/file-shield.svg

<svg xmlns="http://www.w3.org/2000/svg" viewBox="0 0 576 512"><!--! Font Awesome Pro 6.6.0 by @fontawesome - https://fontawesome.com License - https://fontawesome.com/license (Commercial License) Copyright 2024 Fonticons, Inc. --><path d="M352 192l0 28.7 32-12.4 0-56.3L232 0 32 0 0 0 0 32 0 480l0 32 32 0 320 0 10.1 0c-13.3-9.5-25.3-20.3-36.1-32L32 480 32 32l160 0 0 144 0 16 16 0 144 0zm-5.3-32L224 160l0-122.7L346.7 160zM543.9 301.6C542.1 367.4 508.8 437 448 470.3l0-205.8 95.9 37.1zm-223.8 0L416 264.5l0 205.8c-60.8-33.3-94.1-102.8-95.9-168.6zM432 512c96-32 144-130.2 144-216l0-16.2L432 224 288 279.8l0 16.2c0 85.8 48 184 144 216z"/></svg>

<svg xmlns="http://www.w3.org/2000/svg" viewBox="0 0 576 512"><!--! Font Awesome Pro 6.4.2 by @fontawesome - https://fontawesome.com License - https://fontawesome.com/license (Commercial License) Copyright 2023 Fonticons, Inc. --><path d="M352 192v28.7l32-12.4V152L232 0H32 0V32 480v32H32 352h10.1c-13.3-9.5-25.3-20.3-36.1-32H32V32H192V176v16h16H352zm-5.3-32H224V37.3L346.7 160zM543.9 301.6C542.1 367.4 508.8 437 448 470.3V264.5l95.9 37.1zm-223.8 0L416 264.5V470.3c-60.8-33.3-94.1-102.8-95.9-168.6zM432 512c96-32 144-130.1 144-216V279.7L432 224 288 279.7V296c0 85.9 48 184 144 216z"/></svg>
